X:1
T: Duillater House
T: Brown's Reel
R:Reel
Q: 232
K:C
M:4/4
L:1/8
|:e|c2 ec dB AG|A1/2B1/2c BA GE EG|c1/2d1/2e1/2f1/2 ge dB AG|A1/2B1/2c BA GC Ce|
c2 ec dB AG|A1/2B1/2c BA GE EG|c1/2d1/2e1/2f1/2 ge dB AG|A1/2B1/2c BA GC Ce|
ec gc dB gB|cA dc BG G_B|AF cF GE cE|FD GF EC Cf|
eg cg dg Bg|ca Ac BG G_B|Ac Fc Gc Ec|Aa gf ec c:|
